Papirus-Dark/16x16/actions/view-calendar-special-occasion.svg

<?xml version="1.0" encoding="UTF-8" standalone="no"?>
<svg xmlns="http://www.w3.org/2000/svg" width="16" height="16" viewBox="0 0 16 16">
 <defs>
  <style type="text/css" id="current-color-scheme">
   .ColorScheme-Text { color:#d3dae3; }
  </style>
 </defs>
 <path style="fill:currentColor;opacity:1" class="ColorScheme-Text" d="M 3 1 C 0.75 1 1 3 1 3 L 1 15 L 15 15 L 15 3 C 15 1 13 1 13 1 L 3 1 z M 3 3 L 13 3 L 13 3.1640625 L 6.9707031 10.0625 L 4.7207031 7.8125 C 4.3444031 7.4361 3.6596031 7.4362 3.2832031 7.8125 C 3.0950031 8.0007 3 8.26595 3 8.53125 C 3 8.79665 3.0950031 9.0618 3.2832031 9.25 L 6.2832031 12.25 L 7.0644531 13 L 7.7519531 12.1875 L 13 6.1894531 L 13 13 L 7.0644531 13 L 3 13 L 3 8.53125 L 3 3 z"/>
</svg>

<?xml version="1.0" encoding="UTF-8" standalone="no"?>
<!--Created with Inkscape (http://www.inkscape.org/)-->
<svg id="svg7384" xmlns:rdf="http://www.w3.org/1999/02/22-rdf-syntax-ns#" style="enable-background:new" xmlns="http://www.w3.org/2000/svg" height="16" width="16" version="1.1" xmlns:cc="http://creativecommons.org/ns#" xmlns:dc="http://purl.org/dc/elements/1.1/">
 <metadata id="metadata90">
  <rdf:RDF>
   <cc:Work rdf:about="">
    <dc:format>image/svg+xml</dc:format>
    <dc:type rdf:resource="http://purl.org/dc/dcmitype/StillImage"/>
   </cc:Work>
  </rdf:RDF>
 </metadata>
 <g id="g6058" transform="translate(-564,-508)">
  <path id="path6716" opacity="1" fill="#d3dae3" style="fill:#d3dae3;text-indent:0;block-progression:tb;text-decoration-line:none;enable-background:new;text-transform:none" transform="translate(564,508)" d="m3 1c-2.25 0-2 2-2 2v12h14v-12c0-2-2-2-2-2h-10zm0 2h10v0.1641l-6.0293 6.8979-2.25-2.2495c-0.3763-0.3764-1.0611-0.3763-1.4375 0-0.1882 0.1882-0.2832 0.4534-0.2832 0.7187 0 0.2654 0.095 0.5306 0.2832 0.7188l3 3 0.7813 0.75 0.6875-0.812 5.248-5.9985v6.8105h-10v-10z"/>
 </g>
</svg>
